X: 4
T: Denis Murphy's
R: slide
M: 12/8
L: 1/8
K: Dmaj
B|A2D FED F2A A2f|g2e f2d e2d Bcd|
A2D FED F2A A2f|a2f efe d3 d2:|
A|d2e f3 gfe f3|gfe f2d e2d BAB|
d2e f3 gfe f2g|a2f efe d3 d2:|


Tune 159	Setting 23944

